!!!PDT:	1923
!!!LANG: Non-Tone
!!!LING_GROUP: Siouan
!!!REG: Dakotas
!!!COM: Anon.
!!!OTL: Song of the Moon
!!!ODT: <1918//
!!!MPN: Bear-on-the-Flat
!!!MLC: Fort Berthold Reservation, North Dakota, United States of America
!! Song was recorded during either the summer of 1912, 1915, or 1918.
!!!AGN: monody
!!!SOCIAL_FUNCTION: Songs Connected With Legends and Folk-Tales
!!!AMT: irregular
!!!RWG: Transcribed pitches, durations, and meters are only approximate.
!! Drum Tempo: MM69
!! Drum-rhythm: (8 8) (8 8) (8 8) (8 8)
**kern
*ICvox
*Ifemale
*clefF4
*k[f#]
*M3/4
*MM69
=1-
8B
8e
8e
8e
16e
16d
8B
*M2/4
=2
8d
16d
16B
8B
8B
*M3/4
=3
8B
8e
8e
8e
16e
16d
8B
*M2/4
=4
8d
16d
16B
8B
8B
*M3/4
=5
8B
8B
8B
8B
16B
16G
8E
*M5/8
=6
8GL
16GL
16EJJ
8EL
8E
8DJ
=7
8EL
8EJ
8EL
16EL
16EJ
8BBJ
*M2/4
=8
16D
16D
16D
16BB
4BB
=9
2BB
=10
2BB
==
*-
!!!CNT: Mandan
!!!TXO: Mandan
!!!OCY: United States
!!!OCL: Frances Densmore
!!!YOR: Frances Densmore, "Mandan and Hidatsa Music",
!!!YOR: Bulletin 80, page 87, No. 32
!!!PPR: Smithsonian Institution, Bureau of American Ethnology
!!!PPR: Government Printing Office
!!!PDT: 1923
!!!PPP: Washington, DC, United States of America
!!!YEC: Electronic Copyright 2000 David Huron
!!!YER: August 2000
!!!YEN: United States of America
!!!ENC: David Huron
!!!RDT: August 16, 2000
!!!EEV: Release 1.0
!!!AIN: tom, vox
